X: 354
T:Brenda Stubbert's
N: page 126
N: hexatonic
C:Jerry Holland
C:Cape Breton
M:4/4
L:1/8
R:reel
K:Ador
B |: "Am"A2 BA GAAB | A2 Bd eddB | "G"G2 BA BGGB | c2 BA BGGB |
"Am"A2 BA GAAB | A2 Bd edda | "G"gedB GABd | "(Em)"e2 dB "Am"eA AB :|
|:"Am"A2 a2 A2 g2 | eage ageg | "G"G2 BA BGGB | c2 BA BGGB |
[1"Am"A2 a2 A2 g2 | eage agea | "G"gedB GABd | e2 dB "Am"eA AB :|
[2"Am"A2 BA GAAB | A2 Bd edda | "G"gedB GABd | "(Em)"e2 dB "Am"eA A2 |]
